icons/fill-new-food-ice-cream.svg

<svg xmlns="http://www.w3.org/2000/svg" width="32px" height="32px" viewBox="0 0 32 32" version="1.1">
    <title>fill-new-food-ice-cream</title>
    <g id="fill-new-food-ice-cream" stroke-width="1" fill-rule="evenodd">
        <path d="M16.7943578,30.9612244 L27.7707734,16.6074501 C28.1062589,16.1687384 28.0225774,15.5411276 27.5838657,15.2056422 C27.4094497,15.0722652 27.1959843,15 26.9764156,15 L5.02358439,15 C4.47129964,15 4.02358439,15.4477153 4.02358439,16 C4.02358439,16.2195686 4.09584956,16.433034 4.22922655,16.6074501 L15.2056422,30.9612244 C15.5411276,31.3999361 16.1687384,31.4836175 16.6074501,31.1481321 C16.6777486,31.0943744 16.7406001,31.0315229 16.7943578,30.9612244 Z M16,1 C18.9915424,1 21.4717351,3.1893483 21.9257182,6.05318505 C21.6215477,6.01796045 21.3128713,6 21,6 C19.1082845,6 17.3699249,6.65659484 16.0006084,7.75511684 C14.630917,6.65691284 12.8921736,6 11,6 C10.6871287,6 10.3784523,6.01796045 10.0749455,6.05290658 C10.5282649,3.1893483 13.0084576,1 16,1 Z M11,8 C13.9730632,8 16.4410745,10.1623839 16.9170737,13.0001915 L5.08292631,13.0001915 C5.55892549,10.1623839 8.02693683,8 11,8 Z M21,8 C23.9730632,8 26.4410745,10.1623839 26.9170737,13.0001915 L18.938218,13.0008962 C18.7619639,11.5861517 18.2163077,10.2860988 17.4008092,9.20029734 C18.4020579,8.44659691 19.6488748,8 21,8 Z" id="&#24418;&#29366;" />
    </g>
</svg>

<svg xmlns="http://www.w3.org/2000/svg" viewBox="0 0 32 32"><path fill="currentColor" d="m16.794 30.961 10.977-14.354A1 1 0 0 0 26.976 15H5.024a1 1 0 0 0-.795 1.607l10.977 14.354a1 1 0 0 0 1.588 0M16 1a6.002 6.002 0 0 1 5.926 5.053A7.961 7.961 0 0 0 16 7.755a7.966 7.966 0 0 0-5.926-1.702A6 6 0 0 1 16 1m-5 7a6.002 6.002 0 0 1 5.917 5H5.083A6.002 6.002 0 0 1 11 8m10 0a6.002 6.002 0 0 1 5.917 5h-7.979a7.959 7.959 0 0 0-1.537-3.8A5.964 5.964 0 0 1 21 8"/></svg>
